symbols/web/filter_3/materialsymbolsrounded/filter_3_wght500grad200_20px.svg

<svg xmlns="http://www.w3.org/2000/svg" height="20" width="20"><path d="M10.458 12.479h2.188q.979 0 1.635-.656.657-.656.657-1.615V9.5q0-.562-.428-1-.427-.438-1.114-.396.687.021 1.114-.406.428-.427.428-.969v-.708q0-.979-.657-1.636-.656-.656-1.635-.656h-2.208q-.459 0-.792.344-.334.344-.334.802 0 .458.344.802.344.344.802.344h2.188v1h-.688q-.437 0-.76.323t-.323.781q0 .437.333.771.334.333.771.333h.667v.979h-2.208q-.459 0-.792.344-.334.344-.334.781 0 .479.344.813.344.333.802.333ZM7.25 15.417q-1 0-1.719-.719-.719-.719-.719-1.719V3.292q0-1 .719-1.719Q6.25.854 7.25.854h9.688q1 0 1.718.719.719.719.719 1.719v9.687q0 1-.719 1.719-.718.719-1.718.719Zm0-2.438h9.688V3.292H7.25v9.687Zm-4.188 6.625q-1 0-1.718-.708-.719-.708-.719-1.729V6.229q0-.479.365-.833.364-.354.843-.354.5 0 .865.364.364.365.364.844v10.917H14q.479 0 .833.364.355.365.355.865 0 .479-.365.844-.365.364-.844.364ZM7.25 3.292v9.687-9.687Z"/></svg>

<svg xmlns="http://www.w3.org/2000/svg" height="20" width="20"><path d="M10.458 12.479H12.646Q13.625 12.479 14.281 11.823Q14.938 11.167 14.938 10.208V9.5Q14.938 8.938 14.51 8.5Q14.083 8.062 13.396 8.104Q14.083 8.125 14.51 7.698Q14.938 7.271 14.938 6.729V6.021Q14.938 5.042 14.281 4.385Q13.625 3.729 12.646 3.729H10.438Q9.979 3.729 9.646 4.073Q9.312 4.417 9.312 4.875Q9.312 5.333 9.656 5.677Q10 6.021 10.458 6.021H12.646Q12.646 6.021 12.646 6.021Q12.646 6.021 12.646 6.021V7.021Q12.646 7.021 12.646 7.021Q12.646 7.021 12.646 7.021H11.958Q11.521 7.021 11.198 7.344Q10.875 7.667 10.875 8.125Q10.875 8.562 11.208 8.896Q11.542 9.229 11.979 9.229H12.646Q12.646 9.229 12.646 9.229Q12.646 9.229 12.646 9.229V10.208Q12.646 10.208 12.646 10.208Q12.646 10.208 12.646 10.208H10.438Q9.979 10.208 9.646 10.552Q9.312 10.896 9.312 11.333Q9.312 11.812 9.656 12.146Q10 12.479 10.458 12.479ZM7.25 15.417Q6.25 15.417 5.531 14.698Q4.812 13.979 4.812 12.979V3.292Q4.812 2.292 5.531 1.573Q6.25 0.854 7.25 0.854H16.938Q17.938 0.854 18.656 1.573Q19.375 2.292 19.375 3.292V12.979Q19.375 13.979 18.656 14.698Q17.938 15.417 16.938 15.417ZM7.25 12.979H16.938Q16.938 12.979 16.938 12.979Q16.938 12.979 16.938 12.979V3.292Q16.938 3.292 16.938 3.292Q16.938 3.292 16.938 3.292H7.25Q7.25 3.292 7.25 3.292Q7.25 3.292 7.25 3.292V12.979Q7.25 12.979 7.25 12.979Q7.25 12.979 7.25 12.979ZM3.062 19.604Q2.062 19.604 1.344 18.896Q0.625 18.188 0.625 17.167V6.229Q0.625 5.75 0.99 5.396Q1.354 5.042 1.833 5.042Q2.333 5.042 2.698 5.406Q3.062 5.771 3.062 6.25V17.167Q3.062 17.167 3.062 17.167Q3.062 17.167 3.062 17.167H14Q14.479 17.167 14.833 17.531Q15.188 17.896 15.188 18.396Q15.188 18.875 14.823 19.24Q14.458 19.604 13.979 19.604ZM7.25 3.292Q7.25 3.292 7.25 3.292Q7.25 3.292 7.25 3.292V12.979Q7.25 12.979 7.25 12.979Q7.25 12.979 7.25 12.979Q7.25 12.979 7.25 12.979Q7.25 12.979 7.25 12.979V3.292Q7.25 3.292 7.25 3.292Q7.25 3.292 7.25 3.292Z"/></svg>
